X: 1
T: Farewell To Leitrim
M: 4/4
L: 1/8
R: reel
K: Dmix
d2AG FADF|Ec~c2 Ec~c2|dBcA BGAG|FGEF Dgfe|
d2AG FADF|(3EFG AB c2Bc|dBcA BGAF|GFEG FDD2|
fd~d2 fdeg|fd~d2 ^cdeg|fd~d2 fdad|^cdeg fdde|
fd~d2 ad~d2|ec~c2 g2fg|afge fded|^ceag fddc|
